X: 95
T:First Western Change
% Nottingham Music Database
S:From Don Merser's 'Way Down East Fiddlin' Tunes', via Phil Rowe
M:6/8
K:G
"G"gba "C"gfe|"G"d2B GBc|"D7"d^cd F2d|"G"d^cd BGd|
"G"gba "C"gfe|"G"d2B GBc|"D"d^cd DEF|"G"G3 G2B::
"D"AFA B2A|FGA f2f|"Em"g2f agf|"A7"ece a^ga|
"D"AFA B2A|"D"FGA f2e|"Em"gfg "A7"AB^c|"D"d3 d3:|


